X:1
T:Title
%%score ( 1 2 ) { 3 | 4 }
L:1/8
Q:1/4=100
M:4/4
K:G
V:1 treble nm="Grand Piano, Soprano"
V:2 treble 
V:3 bass nm="Choir Pad, More Like Thee"
V:4 bass 
V:1
 G>[GB] [Gd]2- [Gd][Ge][Gd][GB] | [FA]>[FB] G6 | G>G [FA]2- [FA][FA] [EG]2 | [FA]2 [GB]6 | %4
w: By~J.~Henry~Showalter,~1902 * * * * * *||||
 G>[GB] [Gd]2- [Gd][Ge][Gd][GB] | [FA]>[=FB] [Ec]6 | [Ge]>[Ge] [Gd]2- [Gd][GB] [FA]2 | [FB]2 G6 | %8
w: ||||
 z2 d6 | z2 G6 | [DG]>[DG] [FA]2- [FA][FA] [EG]2 | [FA]2 [GB]6 | G>[GB] [Gd]2- [Gd][Ge][Gd][GB] | %13
w: |||||
 [FA]>[=FB] [Ec]6 | [Ge]2 [Gd]2- [Gd][GB] [FA]2 | [FB]2 [DG]6- | [DG]2 z2 z4 |] %17
w: ||||
V:2
 x8 | x8 | x8 | x8 | x8 | x8 | x8 | x8 | [GB]>[Gc] G>G G>G G2 | [Ge]>[Gd] D>D E>E D2 | x8 | x8 | %12
 x8 | x8 | x8 | x8 | x8 |] %17
V:3
 B,>G, B,2- B,CB,[K:treble]D | C>C B,6 | B,>B, D2- DD B,2 | D2 D6 | B,>G, B,2- B,CB,[K:treble]D | %5
 D>G, G,6 | C>C B,2- B,D C2 | D2[K:bass] B,6 | G,>A, B,>B, B,>B, B,2 | C>B, B,>B, C>C B,2 | %10
 B,>B,[K:treble] D2- DD B,2 | D2 D6 | B,>G, B,2- B,CB,[K:treble]D | D>G, G,6 | %14
 C2[K:bass] B,2- B,D C2 | D2 B,6- | B,2 z2 z4 |] %17
V:4
 G,2 G,2- G,G,G,G, | D,>D, G,6 | G,>G, D,2- D,D, E,2 | D,2 G,6 | G,2 G,2- G,G,G,G, | D,2 C,6 | %6
 C,>C, D,2- D,D, D,2 | D,2 G,6 | z z/ G,/ G,>G, G,>G, G,2 | G,>G, G,>G, C,>C, [G,,G,]2 | %10
 G,>G, D,2- D,D, E,2 | D,2 G,6 | G,2 G,2- G,G,G,G, | D,2 C,6 | C,2 D,2- D,D, D,2 | D,2 [G,,G,]6- | %16
 [G,,G,]2 z2 z4 |] %17

